X: 36799
T: Shetland Fiddler, The
R: reel
M: 4/4
K: Dmajor
|:A|d2 fd A2 fe|defg afdf|e2 ge B2 ed|cdef gece|
d2 fd A2 fe|defg afdg|fafd fafd|Bgec d2:|
|:eAfA gA f2|faaf gfed|cAeA fA e2|efed cABc|
dAeA fA g2|faaf gfed|fafd fafd|Bgec d2:|

